remix/Logos/soundcloud-fill.svg

<svg viewBox="0 0 24 24" fill="currentColor" xmlns="http://www.w3.org/2000/svg"><path d="M10.464 8.59606C10.7291 8.59606 10.944 10.7021 10.944 13.3001L10.9427 13.6511C10.9244 16.0851 10.717 18.0041 10.464 18.0041C10.2079 18.0041 9.99871 16.0392 9.98474 13.564L9.98408 13.2117C9.98889 10.6545 10.2019 8.59606 10.464 8.59606ZM8.8 9.55606C9.05863 9.55606 9.26949 11.3561 9.27962 13.6102V13.9499C9.26949 16.204 9.05863 18.0041 8.8 18.0041C8.5446 18.0041 8.33579 16.2488 8.32086 14.0343L8.3201 13.6949L8.32241 13.3544C8.34666 11.2214 8.55123 9.55606 8.8 9.55606ZM7.136 9.55606C7.3914 9.55606 7.60021 11.3114 7.61515 13.5259L7.6159 13.8652L7.61359 14.2057C7.58934 16.3387 7.38477 18.0041 7.136 18.0041C6.87737 18.0041 6.66651 16.204 6.65638 13.9499V13.6102C6.66651 11.3561 6.87737 9.55606 7.136 9.55606ZM5.472 10.1321C5.7371 10.1321 5.952 11.8943 5.952 14.0681L5.95028 14.4033C5.92954 16.4202 5.72333 18.0041 5.472 18.0041C5.21035 18.0041 4.99759 16.2873 4.99211 14.1525V13.9836C4.99759 11.8488 5.21035 10.1321 5.472 10.1321ZM3.808 11.8601C4.0731 11.8601 4.288 13.2354 4.288 14.9321L4.28738 15.0901C4.27452 16.7133 4.06481 18.0041 3.808 18.0041C3.5429 18.0041 3.328 16.6287 3.328 14.9321L3.32862 14.774C3.34148 13.1508 3.55119 11.8601 3.808 11.8601ZM14.592 7.06006C17.1727 7.06006 19.3129 8.94578 19.71 11.4145C20.0053 11.3295 20.3173 11.2841 20.64 11.2841C22.4957 11.2841 24 12.7884 24 14.6441C24 16.4786 22.5297 17.9698 20.7031 18.0035L20.64 18.0041H12.48C12.0558 18.0041 11.712 17.6602 11.712 17.2361V7.93296C12.5358 7.3816 13.5263 7.06006 14.592 7.06006ZM2.144 11.6681C2.4091 11.6681 2.624 13.0005 2.624 14.6441L2.62336 14.7996C2.6103 16.3709 2.40068 17.6201 2.144 17.6201C1.88311 17.6201 1.67084 16.3296 1.66416 14.7221L1.664 14.6441C1.664 13.0005 1.8789 11.6681 2.144 11.6681ZM0.48 12.6281C0.745097 12.6281 0.96 13.5736 0.96 14.7401L0.959091 14.8711C0.943709 15.9765 0.735093 16.8521 0.48 16.8521C0.214903 16.8521 0 15.9065 0 14.7401L0.000909213 14.609C0.0162906 13.5036 0.224907 12.6281 0.48 12.6281Z"/></svg>

<svg viewBox="0 0 24 24" xmlns="http://www.w3.org/2000/svg"><path fill="none" d="M0 0h24v24H0Z"/><path d="M10.464 8.596c.26 0 .48 2.106.48 4.7l-.01.35c-.02 2.43-.23 4.35-.48 4.35 -.26 0-.47-1.97-.48-4.44v-.36c0-2.558.21-4.616.48-4.616Zm-1.67.96c.25 0 .47 1.8.48 4.05v.34c-.01 2.25-.23 4.05-.48 4.05 -.26 0-.47-1.76-.48-3.97v-.34l0-.34c.02-2.14.23-3.798.47-3.798Zm-1.67 0c.25 0 .46 1.75.48 3.97v.34l-.01.34c-.03 2.13-.23 3.79-.48 3.79 -.26 0-.47-1.8-.48-4.06v-.34c.01-2.26.22-4.06.48-4.06Zm-1.67.57c.26 0 .48 1.76.48 3.936l-.01.33c-.02 2.01-.23 3.6-.48 3.6 -.27 0-.48-1.72-.48-3.86v-.17c0-2.135.21-3.86.48-3.86Zm-1.67 1.72c.26 0 .48 1.375.48 3.07v.15c-.02 1.62-.23 2.91-.48 2.91 -.27 0-.48-1.375-.48-3.08v-.16c.01-1.63.22-2.92.48-2.92Zm10.78-4.8c2.58 0 4.72 1.88 5.11 4.354v0c1.78-.52 3.64.51 4.15 2.3 .51 1.78-.52 3.64-2.31 4.15 -.29.08-.57.12-.87.12l-.07 0h-8.16v0c-.43 0-.77-.35-.77-.77V7.89h0c.85-.58 1.85-.88 2.88-.88Zm-12.45 4.6c.26 0 .48 1.33.48 2.97v.15c-.02 1.57-.23 2.82-.48 2.82 -.26 0-.48-1.29-.48-2.9v-.08c0-1.65.21-2.98.48-2.98Zm-1.67.96c.26 0 .48.94.48 2.112v.13c-.02 1.1-.23 1.98-.48 1.98 -.265 0-.48-.95-.48-2.112v-.14c.016-1.11.225-1.99.48-1.99Z"/></svg>
